dist/assets/img/questions/7/answers/1_1200.svg

<svg width="599" height="250" viewBox="0 0 599 250" fill="none" xmlns="http://www.w3.org/2000/svg">
<g filter="url(#filter0_di_1419_50690)">
<path fill-rule="evenodd" clip-rule="evenodd" d="M84.354 28C80.3079 28 76.8988 31.021 76.4121 35.0377L72.1032 70.5985C71.728 73.6947 69.575 76.2571 66.7018 77.4704C56.9606 81.5837 43.5332 89.9491 40.0052 102.115C39.9852 102.184 40.0618 102.241 40.1217 102.201C44.0232 99.6187 51.3743 94.7529 60.2637 92.1251C65.0595 90.7074 69.1484 94.9844 68.5468 99.9491L55.0864 211.038C54.509 215.803 58.2284 220 63.0283 220H529.647C533.693 220 537.102 216.979 537.589 212.962L558.914 36.9623C559.492 32.1973 555.772 28 550.973 28H84.354Z" fill="#FFF0CB"/>
</g>
<defs>
<filter id="filter0_di_1419_50690" x="0.00195312" y="0" width="598.972" height="272" filterUnits="userSpaceOnUse" color-interpolation-filters="sRGB">
<feFlood flood-opacity="0" result="BackgroundImageFix"/>
<feColorMatrix in="SourceAlpha" type="matrix" values="0 0 0 0 0 0 0 0 0 0 0 0 0 0 0 0 0 0 127 0" result="hardAlpha"/>
<feOffset dy="12"/>
<feGaussianBlur stdDeviation="20"/>
<feComposite in2="hardAlpha" operator="out"/>
<feColorMatrix type="matrix" values="0 0 0 0 1 0 0 0 0 1 0 0 0 0 1 0 0 0 1 0"/>
<feBlend mode="normal" in2="BackgroundImageFix" result="effect1_dropShadow_1419_50690"/>
<feBlend mode="normal" in="SourceGraphic" in2="effect1_dropShadow_1419_50690" result="shape"/>
<feColorMatrix in="SourceAlpha" type="matrix" values="0 0 0 0 0 0 0 0 0 0 0 0 0 0 0 0 0 0 127 0" result="hardAlpha"/>
<feOffset dy="-4"/>
<feGaussianBlur stdDeviation="4"/>
<feComposite in2="hardAlpha" operator="arithmetic" k2="-1" k3="1"/>
<feColorMatrix type="matrix" values="0 0 0 0 0.883659 0 0 0 0 0.635314 0 0 0 0 0.0558422 0 0 0 0.4 0"/>
<feBlend mode="normal" in2="shape" result="effect2_innerShadow_1419_50690"/>
</filter>
</defs>
</svg>

<svg width="599" height="250" viewBox="0 0 599 250" fill="none" xmlns="http://www.w3.org/2000/svg"><g filter="url(#filter0_di_1419_50690)"><path fill-rule="evenodd" clip-rule="evenodd" d="M84.354 28a8 8 0 00-7.942 7.038l-4.309 35.56c-.375 3.097-2.528 5.66-5.401 6.872-9.741 4.114-23.169 12.48-26.697 24.645a.077.077 0 00.117.086c3.901-2.582 11.252-7.448 20.142-10.076 4.795-1.418 8.884 2.86 8.283 7.824l-13.46 111.089c-.578 4.765 3.141 8.962 7.941 8.962h466.619a8 8 0 007.942-7.038l21.325-176c.578-4.765-3.142-8.962-7.941-8.962H84.354z" fill="#FFF0CB"/></g><defs><filter id="filter0_di_1419_50690" x=".002" y="0" width="598.972" height="272" filterUnits="userSpaceOnUse" color-interpolation-filters="sRGB"><feFlood flood-opacity="0" result="BackgroundImageFix"/><feColorMatrix in="SourceAlpha" values="0 0 0 0 0 0 0 0 0 0 0 0 0 0 0 0 0 0 127 0" result="hardAlpha"/><feOffset dy="12"/><feGaussianBlur stdDeviation="20"/><feComposite in2="hardAlpha" operator="out"/><feColorMatrix values="0 0 0 0 1 0 0 0 0 1 0 0 0 0 1 0 0 0 1 0"/><feBlend in2="BackgroundImageFix" result="effect1_dropShadow_1419_50690"/><feBlend in="SourceGraphic" in2="effect1_dropShadow_1419_50690" result="shape"/><feColorMatrix in="SourceAlpha" values="0 0 0 0 0 0 0 0 0 0 0 0 0 0 0 0 0 0 127 0" result="hardAlpha"/><feOffset dy="-4"/><feGaussianBlur stdDeviation="4"/><feComposite in2="hardAlpha" operator="arithmetic" k2="-1" k3="1"/><feColorMatrix values="0 0 0 0 0.883659 0 0 0 0 0.635314 0 0 0 0 0.0558422 0 0 0 0.4 0"/><feBlend in2="shape" result="effect2_innerShadow_1419_50690"/></filter></defs></svg>
